X:85
T:Playford simple chords 12
M:3/4
L:1/8
K:G
A2 [d4D,4F,4A,4] | d2 e2 [f4D,4F,4A,4] | e2 f2 | [g2G,2B,2D2] g2 f2 | e4< [d4D,4F,4A,4] |
A2 [d4D,4F,4A,4] | d2 e2 | [f4D,4F,4A,4] e2 | f2 [g2G,2B,2D2] g2 |
f2 e4< [d4D,4F,4A,4] | ef | [g2C,2E,2G,2] f2 e2 | d2 [d2G,2B,2D2] c2 |
B2 Bc [d2G,2B,2D2] | d2 c2 B2 | [A4D,4F,4A,4C4] G2 | ef [g2C,2E,2G,2] f2 |
e2 d2 [d2G,2B,2D2] | c2 B2 Bc | [d2G,2B,2D2] d2 c2 | B2 [A4D,4F,4A,4C4] |
G4 [B3G,3B,3D3] |c d2 d2 | [e2C,2E,2G,2] c2 d4 | [B2G,2B,2D2]>c2 |
d2 d2 [e2G,2B,2D2] | c2 d2 Bc | [d2G,2B,2D2] d2 c2 | B2 [A4D,4F,4A,4C4] |
G4 [B3G,3B,3D3] |c d2 d2 | [e2C,2E,2G,2] c2 d4 | [B2G,2B,2D2]>c2 |
d2 d2 [e2G,2B,2D2] | c2 d2 Bc | [d2G,2B,2D2] d2 c2 | B2 [A4D,4F,4A,4C4] |
G4 |


